X: 2965
T: Bashful Maid, The
R: jig
M: 6/8
K: Dmajor
|:F2A AFA|AFA d2A|GBB FAA|~E3 EFG|
FAA AFA|AFA d2B|ABc dcB|AFD D3:|
|:ecA Acd|ecA d2A|GBB FAA|~E3 Ecd|
ecA Acd|ecA d2B|ABc dcB|AFD D3:|

